packages/katcn/src/icons/svg/safe.svg

<svg width="24" height="24" viewBox="0 0 24 24" fill="none" xmlns="http://www.w3.org/2000/svg">
<path d="M18.6 2H5.4C3.5 2 2 3.5 2 5.4V15.3C2 17.2 3.5 18.7 5.4 18.7H18.6C20.5 18.7 22 17.2 22 15.3V5.4C22 3.5 20.5 2 18.6 2ZM20 15.3C20 16.1 19.4 16.7 18.6 16.7H5.4C4.6 16.7 4 16.1 4 15.3V5.4C4 4.6 4.6 4 5.4 4H18.6C19.4 4 20 4.6 20 5.4V15.3Z" fill="black"/>
<path d="M8.89998 20H6.59998C5.99998 20 5.59998 20.4 5.59998 21C5.59998 21.6 5.99998 22 6.59998 22H8.89998C9.49998 22 9.89998 21.6 9.89998 21C9.89998 20.4 9.49998 20 8.89998 20Z" fill="black"/>
<path d="M17.4 20H15.1C14.5 20 14.1 20.4 14.1 21C14.1 21.6 14.5 22 15.1 22H17.4C18 22 18.4 21.6 18.4 21C18.4 20.4 18 20 17.4 20Z" fill="black"/>
<path d="M8.89998 7C7.09998 7 5.59998 8.5 5.59998 10.4C5.59998 12.2 7.09998 13.7 8.89998 13.7C10.7 13.7 12.2 12.2 12.2 10.4C12.2 8.5 10.7 7 8.89998 7ZM8.89998 11.7C8.19998 11.7 7.59998 11.1 7.59998 10.4C7.59998 9.6 8.19998 9 8.89998 9C9.59998 9 10.2 9.6 10.2 10.3C10.2 11.1 9.59998 11.7 8.89998 11.7Z" fill="black"/>
<path d="M17.7 5.1C17.1 5.1 16.7 5.5 16.7 6.1V14.6C16.7 15.2 17.1 15.6 17.7 15.6C18.3 15.6 18.7 15.2 18.7 14.6V6.1C18.7 5.5 18.3 5.1 17.7 5.1Z" fill="black"/>
</svg>

<svg xmlns="http://www.w3.org/2000/svg" fill="none" viewBox="0 0 24 24"><path fill="#000" d="M18.6 2H5.4C3.5 2 2 3.5 2 5.4v9.9c0 1.9 1.5 3.4 3.4 3.4h13.2c1.9 0 3.4-1.5 3.4-3.4V5.4C22 3.5 20.5 2 18.6 2M20 15.3c0 .8-.6 1.4-1.4 1.4H5.4c-.8 0-1.4-.6-1.4-1.4V5.4C4 4.6 4.6 4 5.4 4h13.2c.8 0 1.4.6 1.4 1.4zM8.9 20H6.6c-.6 0-1 .4-1 1s.4 1 1 1h2.3c.6 0 1-.4 1-1s-.4-1-1-1m8.5 0h-2.3c-.6 0-1 .4-1 1s.4 1 1 1h2.3c.6 0 1-.4 1-1s-.4-1-1-1"/><path fill="#000" d="M8.9 7c-1.8 0-3.3 1.5-3.3 3.4 0 1.8 1.5 3.3 3.3 3.3s3.3-1.5 3.3-3.3c0-1.9-1.5-3.4-3.3-3.4m0 4.7c-.7 0-1.3-.6-1.3-1.3 0-.8.6-1.4 1.3-1.4s1.3.6 1.3 1.3c0 .8-.6 1.4-1.3 1.4m8.8-6.6c-.6 0-1 .4-1 1v8.5c0 .6.4 1 1 1s1-.4 1-1V6.1c0-.6-.4-1-1-1"/></svg>
